!!!!SEGMENT: pl-kk--kk-i-361--002_anonim--ave-maria.krn
!!!cenid: 17xx:1962
!!!COM: Anonim
!!!COM-rismID:
!!!CDT:
!!!CNT:
!!!OTL: Ave Maria
!!!PDT:
!!!AGN: Sacred
!!!SMS-siglum: PL-Kk
!!!SMS-shelfmark: Kk.I.361
!!!SMS-shelfwork: 002 W
!!!SMS-variant:
!!!SMS-altvar:
!!!NIFC-rismSourceID: 1001144501
!!!NIFC-islandoraID: pl-kk:5987
!!!URL-pdf-islandora: https://repozytorium.nifc.pl/islandora/object/pl-kk%3A5987/datastream/PDF/view
!!!URL-scan: https://polish.musicsources.pl/pl/lokalizacje/galeria/rekopisy/5976 @EN{Scan on Polish Music Herritage in Open Access Website} @PL{Skany w portalu Dziedzictwo Muzyki Polskiej w otwartym dostępie}
!!!ONB-nifc: UWAGA: utwory w zbiorze: 1. Ave Hierarchia, 2. Ave Maria
!!!AIN: 1 bass
!!!key:
**kern	**text
*Ibass	*
*I"Basso	*
*I'B	*
*clefF4	*
*k[]	*
*G:	*
*M2/1	*
=1-	=1-
!LO:TX:a:t=Pro offertorio II.	!
2r	.
1F\	A-
*2\right	*
!LO:TX:t=P:problem=kreska pseudotaktowa	!
2E\	.
=2-	=2-
2D/	.
2C/	.
!LO:TX:t=P:problem=kreska pseudotaktowa	!
1D\,<	ve
=3-	=3-
*lig	*
1BB/	Ma-
1D\	.
*Xlig	*
=4-	=4-
2AA/	-ri-
2.A\	-a
4G\	.
4F\	.
!LO:TX:t=P:problem=kreska pseudotaktowa	!
4E\	.
=5-	=5-
1D\	a-
2C,</	-ve
2E\	Ma-
=6-	=6-
1D\	-ri-
2GG,</	-a
2.C/	Ma-
=7-	=7-
.	.
4D\	.
2E\	-ri-
2.D/	-a
8C/L	.
8BB/J	.
=8-	=8-
1AA/	.
!LO:TX:t=P:problem=kreska pseudotaktowa	!
1GG/	.
!!LO:LB:g=original
=9-	=9-
!LO:TX:t=P:problem=kreska pseudotaktowa	!
1GG/	.
1r	.
1AA/	Ma-
=10-	=10-
1D\	-ri-
!LO:TX:t=P:problem=kreska pseudotaktowa	!
1GG/	-a
=11-	=11-
2.C/	gra-
4D/	.
2E\	.
!LO:TX:t=P:problem=kreska pseudotaktowa	!
2C/	-ti-
=12-	=12-
2.F\	-a
4E\	.
4D/	.
4C/	.
!LO:TX:t=P:problem=kreska pseudotaktowa	!
2D\	.
=13-	=13-
*lig	*
1E\	ple-
1D\	.
*Xlig	*
=14-	=14-
*lig	*
1E\	-na
1D\	.
*Xlig	*
=15-	=15-
2GG,</	.
(1C/	ple-
2D\)	.
=16-	=16-
1E\	.
!LO:TX:t=P:problem=kreska pseudotaktowa	!
1D\,<	-na
=17-	=17-
2r	.
2C/	Do-
2GG/	-mi-
!LO:TX:t=P:problem=kreska pseudotaktowa	!
!LO:TX:a:t=P:problem=custos AA	!
2BBn/	-n(us)
!!LO:LB:g=original
=18-	=18-
2.AA/	Te-
!LO:TX:t=P:problem=kreska pseudotaktowa	!
4GG/	.
4AA/	.
4BB/	.
4C/	.
4D/	.
=19-	=19-
1E\	.
!LO:TX:t=P:problem=kreska pseudotaktowa	!
1AA/,<	-cum
=20-	=20-
!LO:TX:t=P:problem=kreska pseudotaktowa	!
1r	.
*lig	*
1C/	Do-
=21-	=21-
1D\	.
*Xlig	*
2C/	-mi-
!LO:TX:t=P:problem=kreska pseudotaktowa	!
2C/	-n(us)
=22-	=22-
4C/	Do-
4D/	.
2E\	.
!LO:TX:t=P:problem=kreska pseudotaktowa	!
1D\	.
=23-	=23-
2.E\	.
4D/	.
2C/	-mi-
!LO:TX:t=P:problem=kreska pseudotaktowa	!
2BB,</	-n(us)
=24-	=24-
1E\	Te-
!LO:TX:t=P:problem=kreska pseudotaktowa	!
1D\,<	-cum
=25-	=25-
1r	.
*lig	*
1G\	Be-
=26-	=26-
1GG/	.
*Xlig	*
0AA/	.
=27-	=27-
.	.
!LO:TX:t=P:problem=kreska pseudotaktowa	!
1D\	-ne-
!!LO:LB:g=original
=28-	=28-
2.C/	-di-
8BB/L	.
8AA/J	.
1GG/,<	-cta
=29-	=29-
*lig	*
1C/	.
!LO:TX:t=P:problem=kreska pseudotaktowa	!
1GG/	.
*Xlig	*
=30-	=30-
0r	.
=31-	=31-
2r	.
!LO:TX:t=P:problem=kreska pseudotaktowa	!
2G\	in
2A\	mu-
2F\	-li-
=32-	=32-
2.D/	-e-
!LO:TX:t=P:problem=kreska pseudotaktowa	!
4C/	.
4D\	.
4E\	.
1F\	.
=33-	=33-
.	.
!LO:TX:t=P:problem=kreska pseudotaktowa	!
2E\	.
2D/	.
2C/	.
=34-	=34-
2BBn/	.
2C/	.
2.AA/	.
4AA/	-ri-
=35-	=35-
!LO:TX:t=P:problem=kreska pseudotaktowa	!
1GG/,<	-bus
1D\	in
=36-	=36-
2.D/	mu-
8C/L	-li-
8BB/J	.
!LO:TX:a:t=P:problem= custos AA	!
!!LO:LB:g=original
2AA/	-e-
2C/	.
=37-	=37-
*lig	*
1GG/	.
!LO:TX:t=P:problem=kreska pseudotaktowa	!
1AA/	.
*Xlig	*
=38-	=38-
1AA/	.
1.C/	.
=39-	=39-
.	.
!LO:TX:t=P:problem=kreska pseudotaktowa	!
2C/	-ri-
2GG,</	-bus,
2G\	et
=40-	=40-
2F\	be-
!LO:TX:t=P:problem=kreska pseudotaktowa	!
2E\	-ne-
1D\	-di-
=41-	=41-
!LO:TX:t=P:problem=kreska pseudotaktowa	!
1AA/	-ct(us)
0r	.
=42-	=42-
.	.
1r	.
=43-	=43-
1r	.
2r	.
2C/	et
=44-	=44-
2BB-X/	be-
!LO:TX:t=P:problem=kreska pseudotaktowa	!
2GG/	-ne-
2AA/	-di-
2.FF/	.
=45-	=45-
.	.
4GG/	.
4AA/	.
4BB/	.
1C/	.
=46-	=46-
!LO:TX:t=P:problem=kreska pseudotaktowa	!
1GG/	-ct(us)
!!LO:LB:g=original
2r	.
2D/	Fru-
=47-	=47-
!LO:TX:t=P:problem=kreska pseudotaktowa	!
1C/,<	-ct(us)
2.F\	ven-
4E\	.
=48-	=48-
4D/	.
4C/	.
2D/	.
!LO:TX:t=P:problem=kreska pseudotaktowa	!
1AA/	-tris
=49-	=49-
2r	.
2D\	Ven-
2GG/	.
2D\	.
=50-	=50-
2C/	.
!LO:TX:t=P:problem=kreska pseudotaktowa	!
2E\	-tris
1D\	Tu-
=51-	=51-
!LO:TX:t=P:problem=kreska pseudotaktowa	!
1GG/	-i.
2r	.
2D\	Ven-
=52-	=52-
2.F\	.
4E\	.
4D/	.
4C/	.
!LO:TX:t=P:problem=kreska pseudotaktowa	!
2D/	.
=53-	=53-
2GG,</	-tris
2.C/	Tu-
4D\	.
2E\	.
=54-	=54-
1D\	.
!!LO:LB:g=original
2E,<\	-i
2C/	Ven-
=55-	=55-
2G\	.
2.GG/	.
4AA/	.
!LO:TX:t=P:problem=kreska pseudotaktowa	!
2BB,</	-tris
=56-	=56-
1C/	Tu-
2GG,</	-i
4G\	Fru-
!LO:TX:t=P:problem=kreska pseudotaktowa	!
4F\	.
=57-	=57-
2E\	-ct(us)
2C/	Ven-
2G\	.
!LO:TX:t=P:problem=kreska pseudotaktowa	!
2GG/	-tris
=58-	=58-
4C/	Tu-
4D/	.
4E/	.
4F/	.
2G\	.
2C/	.
=59-	=59-
0GG/;	-i.
=-	=-
*-	*-
!!!RDF**kern: > = above
!!!RDF**kern: < = below
!!!EED: Leszek Kubiak
!!!EEV: 2021-02-24
!!!ENC: Tomasz Grochalski
!!!END: 2021-02-06
